!!!COM:	la Rue, Pierre de
!!!CDT:	~1452///-1518/11/20
!!!OPR:	Missa Ista est speciosa
!!!ONM:	2
!!!OTL:	Gloria
!!!AGN:	Mass; Gloria
!!!SCT:	Rue1018b
!!!SCA:	Rue1018b
!!!voices-OPR:	5
!!!voices:	5
**kern	**kern	**kern	**kern	**kern
*staff5	*staff4	*staff3	*staff2	*staff1
*Ivox	*Ivox	*Ivox	*Ivox	*Ivox
*I"Bassus2	*I"Bassus1	*I"Tenor	*I"Contra	*I"Discantus
*I'B2	*I'B1	*I'T	*I'C	*I'D
*>[A,B]	*>[A,B]	*>[A,B]	*>[A,B]	*>[A,B]
*>A	*>A	*>A	*>A	*>A
*clefF4	*clefF4	*clefGv2	*clefGv2	*clefG2
*k[]	*k[]	*k[]	*k[]	*k[]
*M2/1	*M2/1	*M2/1	*M2/1	*M2/1
*met(C)	*met(C)	*met(C)	*met(C)	*met(C)
=1-	=1-	=1-	=1-	=1-
!!section: Et in terra pax
!!!OMD: Et in terra pax
0r	0E	[0B	0e	0e
=2	=2	=2	=2	=2
0r	0E	0B]	0e	0g
=3	=3	=3	=3	=3
0r	1F	0A	1c	1a
.	1F	.	1d	1a
=4	=4	=4	=4	=4
0r	0E	0B	0e	1g
.	.	.	.	2r
.	.	.	.	2g/
=5	=5	=5	=5	=5
0r	2r	[0B	1r	2g/
.	2G\	.	.	2g/
.	2G\	.	2r	2e/
.	2G\	.	2d\	[2g/
=6	=6	=6	=6	=6
0r	2E\	0B]	2e\	2g/]
.	1G	.	2d\	4f/
.	.	.	.	4e/
.	.	.	2B\	2d/
.	4F\	.	[2d\	2g/
.	4E\	.	.	.
=7	=7	=7	=7	=7
0r	2D\	0r	2d\]	2f/
.	2G\	.	2B\	2g/
.	1C	.	2c\	4e/
.	.	.	.	4f/
.	.	.	2e\	4g/
.	.	.	.	4a/
=8	=8	=8	=8	=8
0r	2G\	0r	4d\	2b\
.	.	.	4c\	.
.	2A\	.	4B\	2.a/
.	.	.	4A/	.
.	1E	.	1B	.
.	.	.	.	4g#i/
.	.	.	.	2g#i/
=9	=9	=9	=9	=9
1AA	1r	[0c	0A	0a
2AA/	1E	.	.	.
2AA/	.	.	.	.
=10	=10	=10	=10	=10
1.C	2E\	0c]	0r	0r
.	2E\	.	.	.
.	[1G	.	.	.
4BB/	.	.	.	.
4AA/	.	.	.	.
=11	=11	=11	=11	=11
2.GG/	2G\]	0B	0r	0r
.	4F\	.	.	.
4AA/	4E\	.	.	.
4BB/	2.D\	.	.	.
4C/	.	.	.	.
[2D\	.	.	.	.
.	4E\	.	.	.
=12	=12	=12	=12	=12
2D\]	4F\	0A	0r	0r
.	4G\	.	.	.
1AA	1A	.	.	.
[2C/	[2E\	.	.	.
=13	=13	=13	=13	=13
2C/]	2E\]	1G	0r	0r
2BB/	2D\	.	.	.
2AA/	1C	1F	.	.
[2AA/	.	.	.	.
=14	=14	=14	=14	=14
4AA/]	1C	2E/	0r	2r
4GG/	.	.	.	.
4FF/	.	1E	.	2a/
4EE/	.	.	.	.
1FF	1AA	.	.	2a/
.	.	2D/	.	2a/
=15	=15	=15	=15	=15
0EE	0BB	0E	2r	2g/
.	.	.	2e\	1e
.	.	.	2e\	.
.	.	.	2e\	2g/
=16	=16	=16	=16	=16
0r	0r	0r	2d\	2f/
.	.	.	1B	2.d/
.	.	.	.	4e/
.	.	.	2d\	4f/
.	.	.	.	4g/
=17	=17	=17	=17	=17
0r	0r	0r	2c\	2.a/
.	.	.	2.A/	.
.	.	.	.	8g/L
.	.	.	.	8f/J
.	.	.	.	4e/
.	.	.	4B\	4d/
.	.	.	4c\	[2a/
.	.	.	4d\	.
=18	=18	=18	=18	=18
0r	0r	0r	2B\	2a/]
.	.	.	2G/	1g
.	.	.	1A	.
.	.	.	.	2f#i/
=19	=19	=19	=19	=19
2r	1r	0r	0G	0g
2GG/	.	.	.	.
2.GG/	2.BB/	.	.	.
4AA/	4C/	.	.	.
=20	=20	=20	=20	=20
2BB/	2D\	0r	2r	2r
1C	1E	.	2G/	2e/
.	.	.	2.G/	2.e/
4BB/	4D\	.	.	.
4AA/	4C/	.	4A/	4f/
=21	=21	=21	=21	=21
2GG/	2BB/	0r	2B\	2g/
2FF/	2AA/	.	1c	1a
2AA/	2C/	.	.	.
2BB/	2D\	.	4B\	4g/
.	.	.	4A/	4f/
=22	=22	=22	=22	=22
2.C/	2.E\	[0E	2G/	2e/
.	.	.	4C/	2g/
4BB/	4D\	.	4D/	.
2AA/	2C/	.	4E/	2a/
.	.	.	4F/	.
2GG/	2BB/	.	2G/	2b\
=23	=23	=23	=23	=23
1AA	1AA	0E]	2C/	0cc
.	.	.	1e	.
1C	1AA	.	.	.
.	.	.	2c\	.
=24	=24	=24	=24	=24
[0GG	[0BB	0D	2d\	1b
.	.	.	1B	.
.	.	.	.	2b\
.	.	.	[2B\	[2g/
=25	=25	=25	=25	=25
0GG_	0BB]	[0G	2B\]	2g/]
.	.	.	2.B\	4f/
.	.	.	.	4e/
.	.	.	.	2d/
.	.	.	4c\	.
.	.	.	4d\	[2g/
.	.	.	4e\	.
=26	=26	=26	=26	=26
0GG]	0r	0G]	2d\	4g/]
.	.	.	.	4f/
.	.	.	2.c\	2e/
.	.	.	.	1d
.	.	.	4B\	.
.	.	.	2B\	.
=27	=27	=27	=27	=27
0r	2r	0A	1c	0c
.	2AA/	.	.	.
.	2AA/	.	2r	.
.	2AA/	.	2e\	.
=28	=28	=28	=28	=28
0r	2E\	0c	2e\	2r
.	2.C/	.	2e\	2g/
.	.	.	1e	2g/
.	4D\	.	.	.
.	4E\	.	.	2g/
.	4F\	.	.	.
=29	=29	=29	=29	=29
2r	1G	0B	2d\	1g
2E\	.	.	1B	.
2E\	1G	.	.	1g
2E\	.	.	2B\	.
=30	=30	=30	=30	=30
2AA/	1E	0A	2.c\	2.a/
2AA/	.	.	.	.
.	.	.	4B\	4g/
2D\	1r	.	4A/	4f/
.	.	.	4G/	4e/
2C/	.	.	4F/	[2e/
.	.	.	4E/	.
=31	=31	=31	=31	=31
1D	0r	0A	1F	2e/]
.	.	.	.	2d/
1AA	.	.	1E	1e
=32	=32	=32	=32	=32
0r	2r	0B	0E	0r
.	2G\	.	.	.
.	2G\	.	.	.
.	2G\	.	.	.
=33	=33	=33	=33	=33
2r	2.E\	0r	0r	0r
2C/	.	.	.	.
.	4F\	.	.	.
2C/	2G\	.	.	.
2C/	[2A\	.	.	.
=34	=34	=34	=34	=34
2.AA/	2A\]	0r	0r	0r
.	4G\	.	.	.
4BB/	4F\	.	.	.
2C/	2E\	.	.	.
[2D\	[2D\	.	.	.
=35	=35	=35	=35	=35
2D\]	2D\]	0r	0r	0r
4C/	2.G\	.	.	.
4BB/	.	.	.	.
1AA	.	.	.	.
.	4F#i\	.	.	.
.	2F#i\	.	.	.
=36	=36	=36	=36	=36
[0GG	1G	0r	2r	0r
.	.	.	2B\	.
.	2r	.	2B\	.
.	[2G\	.	2B\	.
=37	=37	=37	=37	=37
0GG_	2G\]	0r	2.G/	0r
.	2G\	.	.	.
.	.	.	4A/	.
.	2D\	.	4B\	.
.	.	.	4G/	.
.	[2G\	.	4B\	.
.	.	.	4c\	.
=38	=38	=38	=38	=38
0GG]	4G\]	0r	2d\	0r
.	4F\	.	.	.
.	2E\	.	2.c\	.
.	1D	.	.	.
.	.	.	4B\	.
.	.	.	2B\	.
=39	=39	=39	=39	=39
0r	0C	0r	1c	2r
.	.	.	.	2g/
.	.	.	2r	2g/
.	.	.	2c\	2g/
=40	=40	=40	=40	=40
0r	0r	0r	2c\	2.e/
.	.	.	2c\	.
.	.	.	.	4f/
.	.	.	2e\	4g/
.	.	.	.	4e/
.	.	.	4d\	4g/
.	.	.	4c\	4a/
=41	=41	=41	=41	=41
0r	0r	0r	4d\	2b\
.	.	.	4c\	.
.	.	.	4B\	2.a/
.	.	.	4A/	.
.	.	.	1B	.
.	.	.	.	4g#i/
.	.	.	.	2g#i/
=42	=42	=42	=42	=42
0r	0r	0e	2A/	2a/
.	.	.	2.A/	1cc
.	.	.	4G/	.
.	.	.	4E/	2cc\
.	.	.	4F/	.
=43	=43	=43	=43	=43
1GG	2r	0d	2G/	2b\
.	2G\	.	2B\	1g
1D	2A\	.	2A/	.
.	2A\	.	2d\	2f/
=44	=44	=44	=44	=44
0GG	2.G\	0d	4d\	1g
.	.	.	4c\	.
.	.	.	4B\	.
.	8F\L	.	4A/	.
.	8E\J	.	.	.
.	1D	.	1B	1g
=45	=45	=45	=45	=45
2.C/	2E\	0c	0c	2.e/
.	2C/	.	.	.
4BB/	.	.	.	4d/
1AA	2C/	.	.	1c
.	2C/	.	.	.
=46	=46	=46	=46	=46
2.GG/	1G	1B	0r	0d
4AA/	.	.	.	.
4BB/	2.D\	2r	.	.
4C/	.	.	.	.
[2D\	.	2A/	.	.
.	4E\	.	.	.
=47	=47	=47	=47	=47
2D\]	4F\	2B\	0r	0r
.	4G\	.	.	.
2C/	2.A\	2c\	.	.
2BB/	.	[1d	.	.
.	4G\	.	.	.
[2GG/	[2B\	.	.	.
=48	=48	=48	=48	=48
2GG/]	4B\]	2d\]	0r	0r
.	4A\	.	.	.
2BB/	1G	2B\	.	.
1AA	.	1c	.	.
.	2F#i\	.	.	.
=49	=49	=49	=49	=49
[0GG	0G	0B	0r	1.d
.	.	.	.	2d/
=50	=50	=50	=50	=50
0GG]	2r	2r	0r	2e/
.	2G\	1B	.	1d
.	2.G\	.	.	.
.	.	2B\	.	[2g/
.	4F\	.	.	.
=51	=51	=51	=51	=51
0r	1E	1c	0r	2g/]
.	.	.	.	2e/
.	2D\	1d	.	1f
.	[2F\	.	.	.
=52	=52	=52	=52	=52
0r	4F\]	2A/	0r	1f
.	4E\	.	.	.
.	2D\	2B\	.	.
.	2.C/	1c	.	1e
.	4D\	.	.	.
=53	=53	=53	=53	=53
0r	4E\	2.G/	0r	2.g/
.	4F\	.	.	.
.	2.G\	.	.	.
.	.	4A/	.	4f/
.	.	4B\	.	2d/
.	4F\	4c\	.	.
.	2D\	[2d\	.	2f/
=54	=54	=54	=54	=54
0r	1A	2d\]	0r	1e
.	.	2c#i\	.	.
.	1D	2.d\	.	2.d/
.	.	4cni\	.	4e/
=55	=55	=55	=55	=55
0r	0r	2A/	0r	4f/
.	.	.	.	4g/
.	.	2c\	.	1a
.	.	1B	.	.
.	.	.	.	2g#i/
=56	=56	=56	=56	=56
1AA	0r	1A	1c	2a/
.	.	.	.	1e
2AA/	.	2r	2c\	.
[2FF/	.	[2c\	[2A/	[2a/
=57	=57	=57	=57	=57
2FF/]	0r	2c\]	2A/]	2a/]
2GG/	.	2B\	2d\	2g/
2AA/	.	2A/	2.c\	2f/
2C/	.	2G/	.	2e/
.	.	.	4B\	.
=58	=58	=58	=58	=58
2D\	0r	2F/	4B\	2d/
.	.	.	4A/	.
2AA/	.	1E	1A	2c/
1BB	.	.	.	1d
.	.	2D/	2G#i/	.
=59	=59	=59	=59	=59
0AA	0r	0E	0A	0c
=60	=60	=60	=60	=60
0r	1.E	0r	2r	2r
.	.	.	1B	1g
.	2E\	.	2B\	2g/
=61	=61	=61	=61	=61
0r	1E	0r	2B\	2g/
.	.	.	4c\	2g/
.	.	.	4B\	.
.	2.C/	.	[1c	2.e/
.	4D\	.	.	4f/
=62	=62	=62	=62	=62
0r	2E\	0r	2c\]	2g/
.	2F\	.	4B\	1a
.	.	.	4A/	.
.	1E	.	1B	.
.	.	.	.	2g/
=63	=63	=63	=63	=63
0r	2r	0r	2A/	2a/
.	2E\	.	2B\	2g/
.	1A	.	2c\	2a/
.	.	.	[2e\	[2cc\
=64	=64	=64	=64	=64
0GG	0G	0r	2e\]	2cc\]
.	.	.	4d\	4b\
.	.	.	4c\	4a/
.	.	.	1d	1b
=65	=65	=65	=65	=65
2AA/	0C	0A	0c	2r
2.C/	.	.	.	2e/
.	.	.	.	2.e/
4BB/	.	.	.	.
2AA/	.	.	.	.
.	.	.	.	4f/
=66	=66	=66	=66	=66
2GG/	0r	2B\	0r	2g/
2.FF/	.	2.c\	.	2.a/
4GG/	.	4B\	.	4g/
2AA/	.	4A/	.	4f/
.	.	4G/	.	4e/
=67	=67	=67	=67	=67
2BB/	2r	2F/	2r	2d/
2C/	2G\	2E/	2c\	2c/
[1GG	1G	[1D	4d\	[1g
.	.	.	4c\	.
.	.	.	4B\	.
.	.	.	4A/	.
=68	=68	=68	=68	=68
1GG]	1G	1D]	1B	1g]
1C	[1G	[1E	[1c	2.e/
.	.	.	.	4f/
=69	=69	=69	=69	=69
2r	2G\]	1E]	1c]	2g/
2.AA/	2E\	.	.	1a
.	2F\	1r	1c	.
4BB/	.	.	.	.
2C/	2E\	.	.	2g/
=70	=70	=70	=70	=70
2D\	1A	2r	2r	2f/
2AA/	.	1A	2c\	2e/
1BB	1D	.	2d\	1d
.	.	2G/	2B\	.
=71	=71	=71	=71	=71
2.AA/	1E	1A	2.c\	1c
4BB/	.	.	4d\	.
2C/	2r	1E	1e	2r
2C/	2E\	.	.	2g/
=72	=72	=72	=72	=72
2.FF/	1F	2.c\	2.A/	2.a/
4GG/	.	4B\	4B\	4g/
4AA/	1C	2A/	4c\	2f/
4BB/	.	.	4d\	.
2C/	.	2G/	2e\	2e/
=73	=73	=73	=73	=73
4D\	0r	1F	4f\	2d/
4C/	.	.	4e\	.
4BB/	.	.	4d\	1f
4AA/	.	.	4c\	.
1BB	.	1D	2d\	.
.	.	.	2d\	4e/
.	.	.	.	4d/
=74	=74	=74	=74	=74
[0AAl	1.C	0A	[0el	[0cl
.	2E\	.	.	.
=75	=75	=75	=75	=75
0AA]	0El	0Al	0e]	0c]
!!LO:LB:i:g=z
=76||	=76||	=76||	=76||	=76||
*>B	*>B	*>B	*>B	*>B
*clefF4	*clefF4	*clefGv2	*clefGv2	*clefG2
*k[]	*k[]	*k[]	*k[]	*k[]
*M2/1	*M2/1	*M2/1	*M2/1	*M2/1
*met(C2)	*met(C2)	*met(C2)	*met(C2)	*met(C2)
!!section: Qui tollis
!!!OMD: Qui tollis
0r	1AA	[0c	1E	0r
.	2.C/	.	2.E/	.
.	4D\	.	4F/	.
=77.	=77.	=77.	=77.	=77.
0r	2E\	0c]	2G/	1r
.	2F\	.	1A	.
.	1E	.	.	1e
.	.	.	2G/	.
=78	=78	=78	=78	=78
0r	1AA	[0c	2A/	2.e/
.	.	.	1E	.
.	.	.	.	4f/
.	2r	.	.	2g/
.	2AA/	.	[2e\	[2a/
=79.	=79.	=79.	=79.	=79.
0r	1E	0c]	2e\]	2a/]
.	.	.	2e\	2g/
.	2F\	.	1A	2a/
.	2A\	.	.	[2e/
=80	=80	=80	=80	=80
0r	2G\	[0B	2B\	2e/]
.	1E	.	2.G/	2g/
.	.	.	.	2g/
.	.	.	4A/	.
.	[2G\	.	4B\	2g/
.	.	.	4c\	.
=81.	=81.	=81.	=81.	=81.
0r	4G\]	0B]	2d\	2d/
.	4F\	.	.	.
.	4E\	.	2G/	2.g/
.	4D\	.	.	.
.	1E	.	1G	.
.	.	.	.	4f/
.	.	.	.	4e/
.	.	.	.	4d/
=82	=82	=82	=82	=82
1AA	2r	0A	0r	0c
.	2E\	.	.	.
2.AA/	2.E\	.	.	.
4BB/	4D\	.	.	.
=83.	=83.	=83.	=83.	=83.
2C/	2E\	[0A	0r	0r
1D	1F	.	.	.
2C/	2E\	.	.	.
=84	=84	=84	=84	=84
2D\	2F\	0A]	0r	0r
1AA	1C	.	.	.
[2D\	[2F\	.	.	.
=85.	=85.	=85.	=85.	=85.
4D\]	4F\]	[0B	0r	0r
4C/	4E\	.	.	.
4BB/	4D\	.	.	.
4AA/	4C/	.	.	.
2GG/	2D\	.	.	.
[2G\	[2E\	.	.	.
=86	=86	=86	=86	=86
2G\]	4E\]	0B]	1r	0r
.	4F\	.	.	.
4F\	1G	.	.	.
4E\	.	.	.	.
1D	.	.	1d	.
.	2F\	.	.	.
=87.	=87.	=87.	=87.	=87.
0C	[0G	0c	1.e	1.g
.	.	.	2e\	2g/
=88	=88	=88	=88	=88
1C	0G]	1r	1e	1g
1C	.	[1G	1e	1g
=89.	=89.	=89.	=89.	=89.
1C	0r	2G/]	1c	2.e/
.	.	2A/	.	.
.	.	.	.	4f/
2BB/	.	2B\	2d\	2g/
[2AA/	.	2c\	2c\	[2a/
=90	=90	=90	=90	=90
2AA/]	0r	2.d\	1B	2a/]
2GG/	.	.	.	2b\
.	.	4c\	.	.
2AA/	.	2A/	1E	2cc\
2GG/	.	2B\	.	[2b\
=91.	=91.	=91.	=91.	=91.
1AA	0r	2.c\	0E	4b\]
.	.	.	.	4a/
.	.	.	.	1a
.	.	4A/	.	.
1EE	.	1B	.	.
.	.	.	.	2g#i/
=92	=92	=92	=92	=92
2.AA/	0r	[0A	1r	0a
4BB/	.	.	.	.
2C/	.	.	2.A/	.
[2D\	.	.	.	.
.	.	.	4B\	.
=93.	=93.	=93.	=93.	=93.
4D\]	0r	0A]	2c\	0r
4E\	.	.	.	.
1F	.	.	2.d\	.
.	.	.	4e\	.
4E\	.	.	2f\	.
4D\	.	.	.	.
=94	=94	=94	=94	=94
2C/	1r	0r	2e\	0r
2D\	.	.	1d	.
1E	1G	.	.	.
.	.	.	2c#i\	.
=95.	=95.	=95.	=95.	=95.
0D	1A	0r	0d	1r
.	1A	.	.	[1a
=96	=96	=96	=96	=96
1D	1F	0r	1d	2a/]
.	.	.	.	2a/
1D	1F	.	1d	1a
=97.	=97.	=97.	=97.	=97.
1AA	1.E	0r	1c	1cc
1C	.	.	2G/	1cc
.	2F\	.	2A/	.
=98	=98	=98	=98	=98
1GG	1G	[0d	2B\	1b
.	.	.	2d\	.
2FF/	2A\	.	4c\	2a/
.	.	.	2B\	.
[2GG/	[2G\	.	.	[2b\
.	.	.	4A/	.
=99.	=99.	=99.	=99.	=99.
4GG/]	4G\]	0d_	1G	4b\]
4AA/	4F\	.	.	4a/
4BB/	2E\	.	.	2g/
4C/	.	.	.	.
2D\	1D	.	2r	2f/
2GG/	.	.	[2G/	[2g/
=100	=100	=100	=100	=100
0GG	[0G	0d]	4G/]	2g/]
.	.	.	4A/	.
.	.	.	4B\	4f/
.	.	.	4c\	4e/
.	.	.	2d\	1d
.	.	.	2B\	.
=101.	=101.	=101.	=101.	=101.
[0C	1G]	0e	0c	1c
.	1G	.	.	[1g
=102	=102	=102	=102	=102
0C_	0G	[0e	1c	1g]
.	.	.	1c	1g
=103.	=103.	=103.	=103.	=103.
0C]	1G	0e]	0c	1g
.	1E	.	.	1g
=104	=104	=104	=104	=104
0r	2.F\	[0A	2.c\	1.a
.	4E\	.	4d\	.
.	2C/	.	4e\	.
.	.	.	4f\	.
.	2C/	.	[2e\	2g/
=105.	=105.	=105.	=105.	=105.
0r	1D	0A]	2e\]	2f/
.	.	.	2.d\	4e/
.	.	.	.	4d/
.	1A	.	.	1e
.	.	.	4c#i\	.
.	.	.	2c#i\	.
=106	=106	=106	=106	=106
0r	2D\	0d	1d	1d
.	2.G\	.	.	.
.	.	.	1r	1g
.	4A\	.	.	.
.	2B\	.	.	.
=107.	=107.	=107.	=107.	=107.
0r	2A\	1c	0r	2f/
.	2E\	.	.	1e
.	1F	1A	.	.
.	.	.	.	2d/
=108	=108	=108	=108	=108
1r	0E	[0B	2r	[0e
.	.	.	2.G/	.
2.E\	.	.	.	.
.	.	.	4A/	.
.	.	.	2B\	.
4F\	.	.	.	.
=109.	=109.	=109.	=109.	=109.
2G\	0r	0B]	2.E/	0e]
1E	.	.	.	.
.	.	.	4F/	.
.	.	.	4G/	.
.	.	.	4A/	.
2E\	.	.	[2B\	.
=110	=110	=110	=110	=110
4D\	0r	1r	2B\]	0r
4C/	.	.	.	.
4BB/	.	.	1A	.
4AA/	.	.	.	.
1BB	.	1B	.	.
.	.	.	2G#i/	.
=111.	=111.	=111.	=111.	=111.
2.AA/	0r	1.c	0A	0r
4BB/	.	.	.	.
2C/	.	.	.	.
[2D\	.	2B\	.	.
=112	=112	=112	=112	=112
4D\]	0r	1A	1r	0r
4AA/	.	.	.	.
2C/	.	.	.	.
1BB	.	1G	1d	.
=113.	=113.	=113.	=113.	=113.
2.AA/	0r	0A	2.c\	0r
4BB/	.	.	4B\	.
2C/	.	.	4A/	.
.	.	.	4G/	.
[2D\	.	.	2F/	.
=114	=114	=114	=114	=114
4D\]	0r	1r	2A/	0r
4C/	.	.	.	.
2BB/	.	.	1G	.
1AA	.	1A	.	.
.	.	.	2F#i/	.
=115.	=115.	=115.	=115.	=115.
2.GG/	0r	1.B	0G	0r
4AA/	.	.	.	.
2BB/	.	.	.	.
[2C/	.	2G/	.	.
=116	=116	=116	=116	=116
2C/]	0r	1A	0r	0r
1AA	.	.	.	.
.	.	2F/	.	.
2GG/	.	[2G/	.	.
=117.	=117.	=117.	=117.	=117.
2EE/	0r	4G/]	0r	0r
.	.	4F/	.	.
2GG/	.	1E	.	.
1FF	.	.	.	.
.	.	2D/	.	.
=118	=118	=118	=118	=118
0EE	1r	0E	0r	2r
.	.	.	.	2e/
.	2r	.	.	2e/
.	2E\	.	.	2e/
=119.	=119.	=119.	=119.	=119.
0r	2E\	0r	0r	2.g/
.	2E\	.	.	.
.	.	.	.	4f/
.	2.G\	.	.	2e/
.	.	.	.	[2d/
.	4A\	.	.	.
=120	=120	=120	=120	=120
0r	2B\	0r	0r	4d/]
.	.	.	.	4c/
.	1A	.	.	4B/
.	.	.	.	4A/
.	.	.	.	1B
.	2G#i\	.	.	.
=121.	=121.	=121.	=121.	=121.
[0AA	1A	0r	[0c	1A
.	[1A	.	.	[1e
=122	=122	=122	=122	=122
1AA]	1A]	0r	1c]	1e]
1AA	1A	.	1c	1e
=123.	=123.	=123.	=123.	=123.
1AA	1E	0r	1c	1e
1AA	1E	.	1c	1e
=124	=124	=124	=124	=124
1EE	1E	[0B	1.G	1.g
1EE	[1G	.	.	.
.	.	.	2A/	4f/
.	.	.	.	4e/
=125.	=125.	=125.	=125.	=125.
0GG	2G\]	0B]	2B\	1d
.	4F\	.	2c\	.
.	4E\	.	.	.
.	1D	.	1d	1g
=126	=126	=126	=126	=126
2.C/	1C	0c	1G	2.e/
4D\	.	.	.	4f/
2E\	1r	.	1c	2g/
[2F\	.	.	.	[2a/
=127.	=127.	=127.	=127.	=127.
4F\]	0r	0A	2d\	2a/]
4E\	.	.	.	.
2C/	.	.	2e\	2.g/
1D	.	.	1d	.
.	.	.	.	4f#i/
.	.	.	.	2f#i/
=128	=128	=128	=128	=128
0GG	1r	[0G	0B	0g
.	1D	.	.	.
=129.	=129.	=129.	=129.	=129.
2r	2E\	0G]	2r	1r
1C	1E	.	1e	.
.	.	.	.	2r
[2C/	[2G\	.	[2e\	[2g/
=130	=130	=130	=130	=130
2C/]	4G\]	0c	2e\]	2g/]
.	4F\	.	.	.
2C/	4E\	.	2e\	1g
.	4D\	.	.	.
2C/	1E	.	2c\	.
2C/	.	.	2c\	2g/
=131.	=131.	=131.	=131.	=131.
[0GG	1D	[0B	4d\	1g
.	.	.	4c\	.
.	.	.	4B\	.
.	.	.	4A/	.
.	2r	.	1G	1g
.	2D\	.	.	.
=132	=132	=132	=132	=132
1GG]	1.G	0B]	2r	0d
.	.	.	2G/	.
2r	.	.	[1d	.
2GG/	2G\	.	.	.
=133.	=133.	=133.	=133.	=133.
1.D	1F	0A	2d\]	2r
.	.	.	2d\	2d/
.	[1F	.	2d\	[1a
2D\	.	.	4c\	.
.	.	.	4B\	.
=134	=134	=134	=134	=134
2D\	2F\]	1A	2.A/	2a/]
4C/	4E\	.	.	2a/
4BB/	4D\	.	4B\	.
2AA/	2.C/	1A	4c\	2a/
.	.	.	4d\	.
[2C/	.	.	[2e\	4g/
.	4D\	.	.	4f/
=135.	=135.	=135.	=135.	=135.
2C/]	1E	2G/	4e\]	2e/
.	.	.	4d\	.
2E\	.	2E/	1c	2g/
1D	1r	1F	.	1f
.	.	.	2B\	.
=136	=136	=136	=136	=136
1.C	1E	2G/	0c	1.e
.	.	2.A/	.	.
.	1C	.	.	.
.	.	4G/	.	.
2BB/	.	[2G/	.	2d/
=137.	=137.	=137.	=137.	=137.
1AA	1C	2G/]	1r	1c
.	.	2F#i/	.	.
1GG	1D	1G	2r	1B
.	.	.	[2d\	.
=138	=138	=138	=138	=138
1GG	1.G	[0D	2d\]	1r
.	.	.	1d	.
[1GG	.	.	.	2r
.	4F\	.	2d\	[2b\
.	4E\	.	.	.
=139.	=139.	=139.	=139.	=139.
2GG/]	1D	0D]	2d\	2b\]
2GG/	.	.	2d\	1b
2GG/	[1G	.	1d	.
2GG/	.	.	.	2b\
=140	=140	=140	=140	=140
2.C/	1G]	0r	0c	2cc\
.	.	.	.	2.cc\
4D\	.	.	.	.
1E	1G	.	.	.
.	.	.	.	4b\
.	.	.	.	4a/
.	.	.	.	4g/
=141.	=141.	=141.	=141.	=141.
2D\	2A\	0r	2d\	1f
2F\	1A	.	1d	.
1E	.	.	.	1g
.	2G\	.	2c\	.
=142	=142	=142	=142	=142
1D	1A	0r	2d\	4f/
.	.	.	.	4g/
.	.	.	4c\	4a/
.	.	.	4B\	4b\
1r	1r	.	4c\	2a/
.	.	.	4B\	.
.	.	.	4A/	[2g/
.	.	.	4G/	.
=143.	=143.	=143.	=143.	=143.
0r	1r	0r	1A	2g/]
.	.	.	.	2f#i/
.	2r	.	1G	2g/
.	2G\	.	.	[2e/
=144	=144	=144	=144	=144
0r	2A\	0r	0r	2e/]
.	4G\	.	.	2.f/
.	4F\	.	.	.
.	4G\	.	.	.
.	4F\	.	.	4e/
.	4E\	.	.	[2d/
.	4D\	.	.	.
=145.	=145.	=145.	=145.	=145.
0r	1E	0r	0r	2d/]
.	.	.	.	2c#i/
.	1D	.	.	1d
=146	=146	=146	=146	=146
0D	2r	0F	0r	1r
.	2D\	.	.	.
.	2D\	.	.	2r
.	[2D\	.	.	2d/
=147.	=147.	=147.	=147.	=147.
1D	4D\]	[0F	0r	2d/
.	4E\	.	.	.
.	4F\	.	.	2.d/
.	4G\	.	.	.
1D	[1A	.	.	.
.	.	.	.	4e/
.	.	.	.	4f/
.	.	.	.	4g/
=148	=148	=148	=148	=148
1AA	1A]	0F]	0r	2a/
.	.	.	.	2b\
1AA	1A	.	.	1cc
=149.	=149.	=149.	=149.	=149.
[0GG	0D	0G	1d	1b
.	.	.	2d\	2b\
.	.	.	2d\	[2g/
=150	=150	=150	=150	=150
0GG]	1D	0G	2B\	2g/]
.	.	.	1d	4f/
.	.	.	.	4e/
.	1D	.	.	2d/
.	.	.	4c\	2g/
.	.	.	4B\	.
=151.	=151.	=151.	=151.	=151.
2r	2E\	[0A	2c\	2e/
1D	2D\	.	2d\	1f
.	1E	.	1A	.
2C/	.	.	.	[2e/
=152	=152	=152	=152	=152
1D	1F	0A]	2r	2e/]
.	.	.	2A/	2d/
1AA	[1E	.	2c\	1e
.	.	.	2c\	.
=153.	=153.	=153.	=153.	=153.
[0EE	1E]	[0G	1B	2r
.	.	.	.	2e/
.	2r	.	2B\	2g/
.	2E\	.	[2e\	2g/
=154	=154	=154	=154	=154
0EE]	2E\	0G]	2e\]	1g
.	2E\	.	4d\	.
.	.	.	4c\	.
.	1E	.	1B	1g
=155.	=155.	=155.	=155.	=155.
[0FF	0C	[0F	[0A	1a
.	.	.	.	2a/
.	.	.	.	[2f/
=156	=156	=156	=156	=156
1FF]	2D\	0F]	0A]	2f/]
.	2C/	.	.	4e/
.	.	.	.	4d/
1FF	1F	.	.	2c/
.	.	.	.	2d/
=157.	=157.	=157.	=157.	=157.
1.C	0G	[0E	1r	2e/
.	.	.	.	2f/
.	.	.	1c	2g/
4BB/	.	.	.	[2g/
4AA/	.	.	.	.
=158	=158	=158	=158	=158
1GG	1r	0E_	2B\	4g/]
.	.	.	.	4f/
.	.	.	2B\	4e/
.	.	.	.	4d/
1AA	2r	.	1A	1c
.	[2C/	.	.	.
=159.	=159.	=159.	=159.	=159.
4AA/	4C/]	0E]	2r	1r
4BB/	4D\	.	.	.
4C/	4E\	.	2A/	.
4D\	4F\	.	.	.
2E\	2G\	.	2.c\	2r
2AA/	2C/	.	.	2a/
.	.	.	4B\	.
=160	=160	=160	=160	=160
0AA	0C	1r	2A/	2.cc\
.	.	.	2G/	.
.	.	.	.	4b\
.	.	1c	2F/	2a/
.	.	.	2E/	2g/
=161.	=161.	=161.	=161.	=161.
1AA	2.C/	1.c	1A	2f/
.	.	.	.	2e/
.	4D\	.	.	.
1EE	1E	.	1G	1g
.	.	2B\	.	.
=162	=162	=162	=162	=162
1FF	1AA	1A	1c	1f
1GG	1BB	1G	1B	1e
=163.	=163.	=163.	=163.	=163.
0AA	0C	1F	0A	2r
.	.	.	.	1a
.	.	1E	.	.
.	.	.	.	2g/
=164	=164	=164	=164	=164
1GG	0BB	0G	0B	2e/
.	.	.	.	2.g/
1EE	.	.	.	.
.	.	.	.	4f/
.	.	.	.	[2e/
=165.	=165.	=165.	=165.	=165.
1AA	1r	0F	0r	2e/]
.	.	.	.	4d/
.	.	.	.	4c/
1BB	1D	.	.	1d
=166	=166	=166	=166	=166
1GG	1BB	0E	1r	0e
1AA	2C/	.	1A	.
.	[2E\	.	.	.
=167.	=167.	=167.	=167.	=167.
0EE	2E\]	[0El	2.G/	[0el
.	2D\	.	.	.
.	.	.	4E/	.
.	1C	.	2G/	.
.	.	.	2A/	.
=168	=168	=168	=168	=168
[0EEl	[0BBl	0E_	0B	0e_
=169.	=169.	=169.	=169.	=169.
0EE]	0BB]	0E]	0Bl	0e]
==	==	==	==	==
*-	*-	*-	*-	*-
!!!RDF**kern: l=long note in original notation
!!!RDF**kern: i=editorial accidental
!!!ENC:	Chris Gage 05-16-2013
!!!END:	2013/08/02/
!!!EED:	Jesse Rodin
!!!EEV:	2013/08/05/
!!!ONB:	Translated from MusicXML and edited on 2013/08/05/ by Craig Sapp
!!muse2ps: T^@{OPR}^u^@{ONM}{. }@{OTL}^C^@{COM}^i2I150v85,85,85,85,130Q8c90
